X:1
T:Title
%%score ( 1 2 ) { ( 3 5 ) | 4 }
L:1/8
Q:1/4=83
M:6/8
K:C
V:1 treble nm="Grand Piano, Soprano"
V:2 treble 
V:3 treble nm="Choir Pad, I Am the Door"
V:5 treble 
V:4 bass 
V:1
 [EG]3 [EG]>[_E^F][=EG] | z3 G3 | z6 | [_E^Fc][EFd][DFc] [=EGc]3 | [DGB]2 [FA] [EG]>[_E^F][=EG] | %5
w: By~James~McGranahan * * *|||||
 [FA][EG][_E^F] [=EG]3 | [Gc]2 [^Gd] [Ae]2 [Ae] | [Ae][Af][Ae] e3 | d2 [Ac] [=GB]2 [Gd] | %9
w: ||||
 [^Fd][Fc][FA] G3- | G3 G3 | [^FA]2 [=FB] [Ec]3- | [Ec]2 [Ec] [Fc]2 [Fc] | %13
w: ||||
 [Ac][GB][FA] [EG]2 [DF] | [CE]3 [B,D]3 | z3 B3 | z3 G3 | z3 G3- | G3 z3 | [FA]2 [FB] [Ec]3- | %20
w: |||||||
 [Ec]2 [Ec] [Ec]2 [Ec] | [Ec][GB][FA] [EG]2 [DF] | [CE]2 [EG] [FA]3 | [FB]2 [FB] [Gc]3 | %24
w: ||||
 [Af]3 [Ge]3 | [Fd]3 [Ec]3- | [Ec]6 |] %27
w: |||
V:2
 x6 | [FA]>[EG][_E^F] =E3- | [CE]2 [EG] [_E^Fc]2 [EFc] | x6 | x6 | x6 | x6 | z3 ^G3- | G2 z z3 | %9
 x6 | x6 | x6 | x6 | x6 | x6 | [DG]2 [DA] G3- | [Gd]3 d2 c | [GB]2 [DA] D3 | F3 [EG]3 | x6 | x6 | %21
 x6 | x6 | x6 | x6 | x6 | x6 |] %27
V:3
 C3 C>CC | C>CC C3 | G,2 C A,2 A, | ^G,G,G, =G,3- | G,2 G,[K:treble] C>CC | CCC C3 | E2 D C2 C | %7
w: 1.~~ * * *|||||||
 CCC[K:bass] B,3- | B,2 E D2 B, | B,B,C B,3- | B,3 B,3 | z3 C3- | C2 z z3 | CCC C2[K:bass] G, | %14
w: |||||||
 G,3 G,3 | B,2 C D3 | B,3 B,2 A, | D2 C B,3- | B,3 C3 | C2[K:bass] G, G,3- | G,2 G, G,2 G, | %21
w: |||||||
 CCC C2 G, | G,2 C C3 | G,2 G, C3 | C3 C3 | B,2 G, G,3- | G,6 |] %27
w: ||||||
V:4
 C,3 C,>C,C, | C,>C,C, C,3- | C,2 C, z3 | z6 | z3 C,>C,C, | C,C,C, C,3 | C,2 B,, A,,2 A,, | %7
 A,,A,,A,, E,3- | E,2 A,, D,2 D, | D,D,D, G,3- | G,3 G,3 | G,2 G, C,3- | C,2 C, F,2 F, | %13
 F,F,F, C,2 C, | C,3 z3 | G,2 G, G,3- | G,3 D,3 | D,2 D, G,,3- | G,,3 C,3 | F,2 D, C,3- | %20
 C,2 C, C,2 C, | C,C,C, C,2 C, | C,3 F,3 | D,2 D, E,3 | F,3 G,3 | G,,3 C,3- | C,6 |] %27
V:5
 x6 | x6 | x6 | x6 | x3[K:treble] x3 | x6 | x6 | x3[K:bass] x3 | x6 | x6 | x6 | C2 D z3 | %12
 G,2 G, A,2 A, | x5[K:bass] x | x6 | x6 | x6 | x6 | x6 | x2[K:bass] x4 | x6 | x6 | x6 | x6 | x6 | %25
 x6 | x6 |] %27

